src/pages/guidelines/pictograms/images/16_Containers_1.svg

<?xml version="1.0" encoding="UTF-8"?>
<svg width="928px" height="522px" viewBox="0 0 928 522" version="1.1" xmlns="http://www.w3.org/2000/svg" xmlns:xlink="http://www.w3.org/1999/xlink">
    <!-- Generator: Sketch 52.6 (67491) - http://www.bohemiancoding.com/sketch -->
    <title>Artboard Copy 11</title>
    <desc>Created with Sketch.</desc>
    <defs>
        <polygon id="path-1" points="0 337 337 337 337 0 0 0"></polygon>
    </defs>
    <g id="Artboard-Copy-11" stroke="none" stroke-width="1" fill="none" fill-rule="evenodd">
        <rect id="Rectangle-3" fill="#FFFFFF" x="0" y="0" width="928" height="522"></rect>
        <path d="M644.232,266 L644.232,264.964 L646.962,264.964 L646.962,257.292 L644.204,258.93 L643.742,258.034 L646.85,256.228 L648.138,256.228 L648.138,264.964 L650.658,264.964 L650.658,266 L644.232,266 Z M658.862,266 L652.45,266 L652.45,264.796 L655.642,261.856 C656.099336,261.435998 656.481998,260.990336 656.79,260.519 C657.098002,260.047664 657.252,259.574002 657.252,259.098 L657.252,258.93 C657.252,258.388664 657.102668,257.950002 656.804,257.614 C656.505332,257.277998 656.05267,257.11 655.446,257.11 C655.147332,257.11 654.886001,257.152 654.662,257.236 C654.437999,257.32 654.244334,257.436666 654.081,257.586 C653.917666,257.735334 653.782334,257.910332 653.675,258.111 C653.567666,258.311668 653.481334,258.528665 653.416,258.762 L652.366,258.356 C652.459334,258.066665 652.587666,257.784335 652.751,257.509 C652.914334,257.233665 653.119665,256.988668 653.367,256.774 C653.614335,256.559332 653.912998,256.386667 654.263,256.256 C654.613002,256.125333 655.025998,256.06 655.502,256.06 C655.978002,256.06 656.402665,256.129999 656.776,256.27 C657.149335,256.410001 657.461999,256.605999 657.714,256.858 C657.966001,257.110001 658.159666,257.408665 658.295,257.754 C658.430334,258.099335 658.498,258.481998 658.498,258.902 C658.498,259.284669 658.444334,259.639332 658.337,259.966 C658.229666,260.292668 658.082668,260.602999 657.896,260.897 C657.709332,261.191001 657.483001,261.477999 657.217,261.758 C656.950999,262.038001 656.664002,262.317999 656.356,262.598 L653.724,264.964 L658.862,264.964 L658.862,266 Z M668.046,266 L666.632,266 L664.07,261.898 L664.042,261.898 L661.41,266 L660.136,266 L663.356,261.072 L660.22,256.228 L661.634,256.228 L664.084,260.12 L664.112,260.12 L666.618,256.228 L667.962,256.228 L664.826,260.988 L668.046,266 Z" id="12X" fill="#6F6F6F"></path>
        <g id="Group-40" transform="translate(296.000000, 93.000000)">
            <path d="M72.5,264.5 L264.5,264.5 L264.5,72.5 L72.5,72.5 L72.5,264.5 Z M78.5,258.5 L258.5,258.5 L258.5,78.5 L78.5,78.5 L78.5,258.5 Z" id="Fill-1" fill="#DBDBDB"></path>
            <g id="Group-39">
                <path d="M156.4707,92.832 C117.5297,95.773 86.6237,128.703 86.6237,168.453 C86.6237,210.283 120.6577,244.309 162.4887,244.309 C182.0877,244.309 200.3837,236.973 214.5287,223.543 C172.3237,221.281 138.6847,186.23 138.6847,143.475 C138.6847,124.76 144.9657,106.965 156.4707,92.832 M162.4887,248.633 C118.2767,248.633 82.3057,212.662 82.3057,168.453 C82.3057,124.678 117.7757,88.725 161.3717,88.303 C162.1657,88.133 163.0187,88.801 163.3667,89.592 C163.7157,90.383 163.5637,91.303 162.9747,91.936 C150.0957,105.811 143.0027,124.115 143.0027,143.475 C143.0027,185.305 177.0367,219.336 218.8667,219.336 C219.7257,219.336 220.8797,219.828 221.2227,220.619 C221.5687,221.404 221.7877,222.301 221.2017,222.934 C206.0407,239.264 184.6397,248.633 162.4887,248.633" id="Fill-2" fill="#000000"></path>
                <path d="M228.5,106.3379 L218.659,106.3379 L218.659,96.4999 C218.659,95.3049 217.692,94.3379 216.5,94.3379 C215.308,94.3379 214.341,95.3049 214.341,96.4999 L214.341,106.3379 L204.5,106.3379 C203.308,106.3379 202.341,107.3049 202.341,108.4999 C202.341,109.6949 203.308,110.6619 204.5,110.6619 L214.341,110.6619 L214.341,120.4999 C214.341,121.6949 215.308,122.6619 216.5,122.6619 C217.692,122.6619 218.659,121.6949 218.659,120.4999 L218.659,110.6619 L228.5,110.6619 C229.692,110.6619 230.659,109.6949 230.659,108.4999 C230.659,107.3049 229.692,106.3379 228.5,106.3379" id="Fill-4" fill="#000000"></path>
                <path d="M192.5,130.3379 L182.659,130.3379 L182.659,120.4999 C182.659,119.3049 181.692,118.3379 180.5,118.3379 C179.308,118.3379 178.341,119.3049 178.341,120.4999 L178.341,130.3379 L168.5,130.3379 C167.308,130.3379 166.341,131.3049 166.341,132.4999 C166.341,133.6949 167.308,134.6619 168.5,134.6619 L178.341,134.6619 L178.341,144.4999 C178.341,145.6949 179.308,146.6619 180.5,146.6619 C181.692,146.6619 182.659,145.6949 182.659,144.4999 L182.659,134.6619 L192.5,134.6619 C193.692,134.6619 194.659,133.6949 194.659,132.4999 C194.659,131.3049 193.692,130.3379 192.5,130.3379" id="Fill-6" fill="#000000"></path>
                <path d="M252.5,184.3379 L242.659,184.3379 L242.659,174.4999 C242.659,173.3049 241.692,172.3379 240.5,172.3379 C239.308,172.3379 238.341,173.3049 238.341,174.4999 L238.341,184.3379 L228.5,184.3379 C227.308,184.3379 226.341,185.3049 226.341,186.4999 C226.341,187.6949 227.308,188.6619 228.5,188.6619 L238.341,188.6619 L238.341,198.4999 C238.341,199.6949 239.308,200.6619 240.5,200.6619 C241.692,200.6619 242.659,199.6949 242.659,198.4999 L242.659,188.6619 L252.5,188.6619 C253.692,188.6619 254.659,187.6949 254.659,186.4999 C254.659,185.3049 253.692,184.3379 252.5,184.3379" id="Fill-8" fill="#000000"></path>
                <mask id="mask-2" fill="white">
                    <use xlink:href="#path-1"></use>
                </mask>
                <g id="Clip-11"></g>
                <polygon id="Fill-10" fill="#F975A5" mask="url(#mask-2)" points="258.5 78.5 264.5 78.5 264.5 72.5 258.5 72.5"></polygon>
                <polygon id="Fill-12" fill="#FFD0E2" mask="url(#mask-2)" points="264.5 84.5 312.5 84.5 312.5 72.5 264.5 72.5"></polygon>
                <polygon id="Fill-13" fill="#F975A5" mask="url(#mask-2)" points="258.5 168.5 264.5 168.5 264.5 162.5 258.5 162.5"></polygon>
                <polygon id="Fill-14" fill="#FFD0E2" mask="url(#mask-2)" points="264.5 174.5 336.5 174.5 336.5 162.5 264.5 162.5"></polygon>
                <path d="M25,312 L72,312 L72,265 L25,265 L25,312 Z M25,264 L72,264 L72,73 L25,73 L25,264 Z M25,72 L72,72 L72,25 L25,25 L25,72 Z M73,312 L264,312 L264,265 L73,265 L73,312 Z M73,264 L264,264 L264,73 L73,73 L73,264 Z M73,72 L264,72 L264,25 L73,25 L73,72 Z M265,72 L312,72 L312,25 L265,25 L265,72 Z M301,264 L312,264 L312,73 L301,73 L301,264 Z M277,264 L288,264 L288,73 L277,73 L277,264 Z M289,264 L300,264 L300,73 L289,73 L289,264 Z M265,264 L276,264 L276,73 L265,73 L265,264 Z M265,312 L312,312 L312,265 L265,265 L265,312 Z M24,313 L313,313 L313,24 L24,24 L24,313 Z" id="Fill-15" fill="#95C0FF" mask="url(#mask-2)"></path>
                <polygon id="Fill-16" fill="#95C0FF" mask="url(#mask-2)" points="324 230.5 325 230.5 325 106.5 324 106.5"></polygon>
                <path d="M168.5,1 C76.14,1 1,76.141 1,168.5 C1,260.859 76.14,336 168.5,336 C260.86,336 336,260.859 336,168.5 C336,76.141 260.86,1 168.5,1 M168.5,337 C75.589,337 0,261.411 0,168.5 C0,75.589 75.589,0 168.5,0 C261.411,0 337,75.589 337,168.5 C337,261.411 261.411,337 168.5,337" id="Fill-17" fill="#006AFE" mask="url(#mask-2)"></path>
                <polygon id="Fill-18" fill="#0062FF" mask="url(#mask-2)" points="264.5 84.5 270.5 84.5 270.5 78.5 264.5 78.5"></polygon>
                <polygon id="Fill-19" fill="#0062FF" mask="url(#mask-2)" points="264.5 174.5 270.5 174.5 270.5 168.5 264.5 168.5"></polygon>
                <polygon id="Fill-20" fill="#0062FF" mask="url(#mask-2)" points="270.5 78.819 276.5 78.819 276.5 72.819 270.5 72.819"></polygon>
                <polygon id="Fill-21" fill="#0062FF" mask="url(#mask-2)" points="270.5 168.5 276.5 168.5 276.5 162.5 270.5 162.5"></polygon>
                <polygon id="Fill-22" fill="#0062FF" mask="url(#mask-2)" points="276.5 84.5 282.5 84.5 282.5 78.5 276.5 78.5"></polygon>
                <polygon id="Fill-23" fill="#0062FF" mask="url(#mask-2)" points="276.5 174.5 282.5 174.5 282.5 168.5 276.5 168.5"></polygon>
                <polygon id="Fill-24" fill="#0062FF" mask="url(#mask-2)" points="282.5 78.819 288.5 78.819 288.5 72.819 282.5 72.819"></polygon>
                <polygon id="Fill-25" fill="#0062FF" mask="url(#mask-2)" points="282.5 168.5 288.5 168.5 288.5 162.5 282.5 162.5"></polygon>
                <polygon id="Fill-26" fill="#0062FF" mask="url(#mask-2)" points="288.5 84.5 294.5 84.5 294.5 78.5 288.5 78.5"></polygon>
                <polygon id="Fill-27" fill="#0062FF" mask="url(#mask-2)" points="288.5 174.5 294.5 174.5 294.5 168.5 288.5 168.5"></polygon>
                <polygon id="Fill-28" fill="#0062FF" mask="url(#mask-2)" points="294.5 78.819 300.5 78.819 300.5 72.819 294.5 72.819"></polygon>
                <polygon id="Fill-29" fill="#0062FF" mask="url(#mask-2)" points="294.5 168.5 300.5 168.5 300.5 162.5 294.5 162.5"></polygon>
                <polygon id="Fill-30" fill="#0062FF" mask="url(#mask-2)" points="300.5 84.5 306.5 84.5 306.5 78.5 300.5 78.5"></polygon>
                <polygon id="Fill-31" fill="#0062FF" mask="url(#mask-2)" points="300.5 174.5 306.5 174.5 306.5 168.5 300.5 168.5"></polygon>
                <polygon id="Fill-32" fill="#0062FF" mask="url(#mask-2)" points="306.5 78.819 312.5 78.819 312.5 72.819 306.5 72.819"></polygon>
                <polygon id="Fill-33" fill="#0062FF" mask="url(#mask-2)" points="306.5 168.5 312.5 168.5 312.5 162.5 306.5 162.5"></polygon>
                <polygon id="Fill-34" fill="#0062FF" mask="url(#mask-2)" points="312.5 174.5 318.5 174.5 318.5 168.5 312.5 168.5"></polygon>
                <polygon id="Fill-35" fill="#0062FF" mask="url(#mask-2)" points="318.5 168.5 324.5 168.5 324.5 162.5 318.5 162.5"></polygon>
                <polygon id="Fill-36" fill="#0062FF" mask="url(#mask-2)" points="324.5 174.5 330.5 174.5 330.5 168.5 324.5 168.5"></polygon>
                <polygon id="Fill-37" fill="#0062FF" mask="url(#mask-2)" points="330.5 168.5 336.5 168.5 336.5 162.5 330.5 162.5"></polygon>
                <polygon id="Fill-38" fill="#006AFE" mask="url(#mask-2)" points="173.5 167.8145 169 167.8145 169 163.3145 168 163.3145 168 167.8145 163.5 167.8145 163.5 168.8145 168 168.8145 168 173.3145 169 173.3145 169 168.8145 173.5 168.8145"></polygon>
            </g>
        </g>
        <path d="M625.2,147.168 C624.639997,147.168 624.150002,147.095667 623.73,146.951 C623.309998,146.806333 622.957668,146.608001 622.673,146.356 C622.388332,146.103999 622.173667,145.805335 622.029,145.46 C621.884333,145.114665 621.812,144.741335 621.812,144.34 C621.812,143.667997 621.993998,143.136002 622.358,142.744 C622.722002,142.351998 623.197997,142.076667 623.786,141.918 L623.786,141.806 C623.272664,141.628666 622.864335,141.341669 622.561,140.945 C622.257665,140.548331 622.106,140.070003 622.106,139.51 C622.106,138.76333 622.376664,138.168336 622.918,137.725 C623.459336,137.281664 624.219995,137.06 625.2,137.06 C626.180005,137.06 626.940664,137.281664 627.482,137.725 C628.023336,138.168336 628.294,138.76333 628.294,139.51 C628.294,140.070003 628.142335,140.548331 627.839,140.945 C627.535665,141.341669 627.127336,141.628666 626.614,141.806 L626.614,141.918 C627.202003,142.076667 627.677998,142.351998 628.042,142.744 C628.406002,143.136002 628.588,143.667997 628.588,144.34 C628.588,144.741335 628.515667,145.114665 628.371,145.46 C628.226333,145.805335 628.011668,146.103999 627.727,146.356 C627.442332,146.608001 627.090002,146.806333 626.67,146.951 C626.249998,147.095667 625.760003,147.168 625.2,147.168 Z M625.2,146.146 C625.881337,146.146 626.408665,145.994335 626.782,145.691 C627.155335,145.387665 627.342,144.956003 627.342,144.396 L627.342,144.102 C627.342,143.541997 627.155335,143.110335 626.782,142.807 C626.408665,142.503665 625.881337,142.352 625.2,142.352 C624.518663,142.352 623.991335,142.503665 623.618,142.807 C623.244665,143.110335 623.058,143.541997 623.058,144.102 L623.058,144.396 C623.058,144.956003 623.244665,145.387665 623.618,145.691 C623.991335,145.994335 624.518663,146.146 625.2,146.146 Z M625.2,141.372 C625.816003,141.372 626.282665,141.241335 626.6,140.98 C626.917335,140.718665 627.076,140.336003 627.076,139.832 L627.076,139.622 C627.076,139.117997 626.917335,138.735335 626.6,138.474 C626.282665,138.212665 625.816003,138.082 625.2,138.082 C624.583997,138.082 624.117335,138.212665 623.8,138.474 C623.482665,138.735335 623.324,139.117997 623.324,139.622 L623.324,139.832 C623.324,140.336003 623.482665,140.718665 623.8,140.98 C624.117335,141.241335 624.583997,141.372 625.2,141.372 Z M637.646,147 L636.232,147 L633.67,142.898 L633.642,142.898 L631.01,147 L629.736,147 L632.956,142.072 L629.82,137.228 L631.234,137.228 L633.684,141.12 L633.712,141.12 L636.218,137.228 L637.562,137.228 L634.426,141.988 L637.646,147 Z" id="8X" fill="#6F6F6F"></path>
    </g>
</svg>

<svg xmlns="http://www.w3.org/2000/svg" xmlns:xlink="http://www.w3.org/1999/xlink" viewBox="0 0 928 522"><defs><path id="a" d="M0 337h337V0H0z"/></defs><g fill="none" fill-rule="evenodd"><path fill="#FFF" d="M0 0h928v522H0z"/><path d="M644.232 266v-1.036h2.73v-7.672l-2.758 1.638-.462-.896 3.108-1.806h1.288v8.736h2.52V266h-6.426zm14.63 0h-6.412v-1.204l3.192-2.94a7.1 7.1 0 001.148-1.337c.308-.471.462-.945.462-1.421v-.168c0-.541-.15-.98-.448-1.316-.299-.336-.751-.504-1.358-.504-.299 0-.56.042-.784.126-.224.084-.418.2-.581.35-.163.15-.299.324-.406.525a3.21 3.21 0 00-.259.651l-1.05-.406c.093-.29.222-.572.385-.847s.369-.52.616-.735c.247-.215.546-.387.896-.518.35-.13.763-.196 1.239-.196.476 0 .9.07 1.274.21.373.14.686.336.938.588.252.252.446.55.581.896.135.345.203.728.203 1.148a3.4 3.4 0 01-.161 1.064 4.145 4.145 0 01-.441.931 5.657 5.657 0 01-.679.861c-.266.28-.553.56-.861.84l-2.632 2.366h5.138V266zm9.184 0h-1.414l-2.562-4.102h-.028L661.41 266h-1.274l3.22-4.928-3.136-4.844h1.414l2.45 3.892h.028l2.506-3.892h1.344l-3.136 4.76 3.22 5.012z" fill="#6F6F6F"/><path d="M368.5 357.5h192v-192h-192v192zm6-6h180v-180h-180v180z" fill="#DBDBDB"/><g transform="translate(296 93)"><path d="M156.47 92.832c-38.94 2.941-69.846 35.871-69.846 75.621 0 41.83 34.034 75.856 75.865 75.856 19.599 0 37.895-7.336 52.04-20.766-42.205-2.262-75.844-37.313-75.844-80.068 0-18.715 6.28-36.51 17.786-50.643m6.018 155.801c-44.212 0-80.183-35.971-80.183-80.18 0-43.775 35.47-79.728 79.066-80.15.794-.17 1.647.498 1.995 1.289a2.158 2.158 0 01-.392 2.344c-12.88 13.875-19.972 32.179-19.972 51.539 0 41.83 34.034 75.861 75.864 75.861.859 0 2.013.492 2.356 1.283.346.785.565 1.682-.021 2.315-15.161 16.33-36.562 25.699-58.713 25.699M228.5 106.338h-9.841V96.5a2.16 2.16 0 10-4.318 0v9.838H204.5a2.16 2.16 0 00-2.159 2.162 2.16 2.16 0 002.159 2.162h9.841v9.838a2.16 2.16 0 104.318 0v-9.838h9.841a2.16 2.16 0 002.159-2.162 2.16 2.16 0 00-2.159-2.162" fill="#000"/><path d="M192.5 130.338h-9.841V120.5a2.16 2.16 0 10-4.318 0v9.838H168.5a2.16 2.16 0 00-2.159 2.162 2.16 2.16 0 002.159 2.162h9.841v9.838a2.16 2.16 0 104.318 0v-9.838h9.841a2.16 2.16 0 002.159-2.162 2.16 2.16 0 00-2.159-2.162m60 54h-9.841V174.5a2.16 2.16 0 10-4.318 0v9.838H228.5a2.16 2.16 0 00-2.159 2.162 2.16 2.16 0 002.159 2.162h9.841v9.838a2.16 2.16 0 104.318 0v-9.838h9.841a2.16 2.16 0 002.159-2.162 2.16 2.16 0 00-2.159-2.162" fill="#000"/><mask id="b" fill="#fff"><use xlink:href="#a"/></mask><path fill="#F975A5" mask="url(#b)" d="M258.5 78.5h6v-6h-6z"/><path fill="#FFD0E2" mask="url(#b)" d="M264.5 84.5h48v-12h-48z"/><path fill="#F975A5" mask="url(#b)" d="M258.5 168.5h6v-6h-6z"/><path fill="#FFD0E2" mask="url(#b)" d="M264.5 174.5h72v-12h-72z"/><path d="M25 312h47v-47H25v47zm0-48h47V73H25v191zm0-192h47V25H25v47zm48 240h191v-47H73v47zm0-48h191V73H73v191zm0-192h191V25H73v47zm192 0h47V25h-47v47zm36 192h11V73h-11v191zm-24 0h11V73h-11v191zm12 0h11V73h-11v191zm-24 0h11V73h-11v191zm0 48h47v-47h-47v47zm-241 1h289V24H24v289zm300-82.5h1v-124h-1z" fill="#95C0FF" mask="url(#b)"/><path d="M168.5 1C76.14 1 1 76.141 1 168.5S76.14 336 168.5 336 336 260.859 336 168.5 260.86 1 168.5 1m0 336C75.589 337 0 261.411 0 168.5S75.589 0 168.5 0 337 75.589 337 168.5 261.411 337 168.5 337" fill="#006AFE" mask="url(#b)"/><path fill="#0062FF" mask="url(#b)" d="M264.5 84.5h6v-6h-6zm0 90h6v-6h-6zm6-95.681h6v-6h-6zm0 89.681h6v-6h-6zm6-84h6v-6h-6zm0 90h6v-6h-6zm6-95.681h6v-6h-6zm0 89.681h6v-6h-6zm6-84h6v-6h-6zm0 90h6v-6h-6zm6-95.681h6v-6h-6zm0 89.681h6v-6h-6zm6-84h6v-6h-6zm0 90h6v-6h-6zm6-95.681h6v-6h-6zm0 89.681h6v-6h-6zm6 6h6v-6h-6zm6-6h6v-6h-6zm6 6h6v-6h-6zm6-6h6v-6h-6z"/><path fill="#006AFE" mask="url(#b)" d="M173.5 167.815H169v-4.5h-1v4.5h-4.5v1h4.5v4.5h1v-4.5h4.5z"/></g><path d="M625.2 147.168c-.56 0-1.05-.072-1.47-.217a3.092 3.092 0 01-1.057-.595c-.285-.252-.5-.55-.644-.896a2.87 2.87 0 01-.217-1.12c0-.672.182-1.204.546-1.596.364-.392.84-.667 1.428-.826v-.112a2.544 2.544 0 01-1.225-.861c-.303-.397-.455-.875-.455-1.435 0-.747.27-1.342.812-1.785.541-.443 1.302-.665 2.282-.665s1.74.222 2.282.665c.541.443.812 1.038.812 1.785 0 .56-.152 1.038-.455 1.435a2.544 2.544 0 01-1.225.861v.112c.588.159 1.064.434 1.428.826.364.392.546.924.546 1.596 0 .401-.072.775-.217 1.12a2.46 2.46 0 01-.644.896 3.1 3.1 0 01-1.057.595c-.42.145-.91.217-1.47.217zm0-1.022c.681 0 1.209-.152 1.582-.455.373-.303.56-.735.56-1.295v-.294c0-.56-.187-.992-.56-1.295-.373-.303-.9-.455-1.582-.455-.681 0-1.209.152-1.582.455-.373.303-.56.735-.56 1.295v.294c0 .56.187.992.56 1.295.373.303.9.455 1.582.455zm0-4.774c.616 0 1.083-.13 1.4-.392.317-.261.476-.644.476-1.148v-.21c0-.504-.159-.887-.476-1.148-.317-.261-.784-.392-1.4-.392-.616 0-1.083.13-1.4.392-.317.261-.476.644-.476 1.148v.21c0 .504.159.887.476 1.148.317.261.784.392 1.4.392zM637.646 147h-1.414l-2.562-4.102h-.028L631.01 147h-1.274l3.22-4.928-3.136-4.844h1.414l2.45 3.892h.028l2.506-3.892h1.344l-3.136 4.76 3.22 5.012z" fill="#6F6F6F"/></g></svg>
